X:2028
T:A Virgin unspotted
C:William Duke (Shepherd)
O:Isle of Man
S:Traditional carol
Z:Clague collection
B:Kiaull Vannin #28 
L:1/4
M:3/4
K:G 
G|Gd (d/c/)|BB (B/A/)|GB (A/G/)|G2 G|Gd (d/c/)|BB (B/-A/)|GB (A/G/)|G2 B|
AA c|BG G|Bd ^c|d2 B|(c/d/) (e/d/) c|de (B/A/)|GB (A/G/)|G2||
